!!!COM: Victor Masse/
!!!CNT: Francais
!!!TXO: Francais
!!!OTL: La Jeune Captive
!!!LYR: Andre/ Che/nier
!!!OPR: Premie\res Me/lodies
!!!ONM: No. 1
!!!ENC: Jacob Pegg
!!!YOR: Romantic French Song 1830-1870 -David Tunley, ed.,
!!!YOR: New York: Garland Publishing, Inc., 1995, Vol. 4
!!!ODT: 1868/
!!NB: Vocal melody and text only encoded.
!!NB: First instance of melodic material only encoded.
**kern	**silbe
*clef G2	*
*k[b-]	*
*M3/4	*
=10	=10
{4a	{L'e/-
4f	-pi
4cc	nais-
=11	=11
8b-	-sant
8a	mu^-
2g	-rit
=12	=12
4b-	de
4g	la
4dd	faux
=13	=13
8cc	res-
8b-	-pec-
2a}	-te;/}
=14	=14
{4g	{Sans
8a	crain-
8g	-te
8f	du
8e	pres-
=15	=15
2.cc	-soir,
=16	=16
4g	le
8a	pam-
8g	-pre
8f	tout
8e	l'e/-
=17	=17
2.cc}	-te/}
=18	=18
{4dd	{Boit
4g	les
8b-	doux
8dd	pre/-
=19	=19
4cc	-sents
4.ee-	de
8dd	l'au-
=20	=20
2cc	-ro-
4g	|
=21	=21
2a}	-re;}
4r	.
=22	=22
{4a	{Et
[2e	moi,
=23	=23
2e]	|
4r	.
=24	=24
4a	com-
4g	-me
4e	lui
=25	=25
(4bn	bel-
4a)	-le,
4dd	et
=26	=26
8cc#	jeu-
8bn	-ne
4cc#	com-
4ee	-me
=27	=27
2.a}	lui,}
=28	=28
{8b-	{Quoi
8a	que
4g	l'heu-
8b-	-re
8dd	pre/-
=29	=29
2a	-sen-
4a	-te
=30	=30
8b-	ait
8a	de
4g	trouble
8b-	et
8dd	d'en-
=31	=31
2.a}	-nui,}
=32	=32
{4a	{Je
4bn	ne
4cc#	veux
=33	=33
4.dd	pas
8ee	mou-
8ff#	-rir
8ee	en-
=34	=34
2dd	-co-
4cc#	|
=35	=35
2.f#}	-re,}
=36	=36
{4e	{Je
4g	ne
4bn	veux
=37	=37
8a	pas
8ff#	je
8gg	ne
8ff#	veux
8dd	pas
8a	mou-
=38	=38
[2f#	-rir
(8f#q]	|
16gq	|
16f#q)	|
8eq	|
8f#q	|
(8cc#	en-
8bn)	|
=39	=39
(2a	-co-
4c#)	|
=40	=40
2d}	-re.}
4r	.
!!rests
!!mm.45-54 melodically identical to mm. 10-24
=55	=55
{4cc	{ai-
8a	-les
8cc	de
8ee	l'es-
8dd	-pe-
=56	=56
2cc	-ran-
4g	|
=57	=57
2a}	-ce;}
4r	.
=58	=58
{8.a-	{E-
16g	-cha-
2f	-pe/e
=59	=59
8.g	aux
16f	re/-
2e-	-seaux
=60	=60
4d	de
8g	l'oi-
8f	-se-
8.e-	-leur
16d	cru-
=61	=61
2c}	-el,}
8r	.
{8cc	{Plus
=62	=62
4.cc	vi-
8cc	-ve,
8.b-	plus
16a	heu-
=63	=63
2dd	-reuse,
8dd	aux
8dd	cam-
=64	=64
2dd	-pa-
8.cc	-gnes
16bn	du
=65	=65
2een}	ciel;}
{8ee-	{Phi-
8ee-	-lo-
=66	=66
8dd	-me\-
8een	-le
4dd	chan-
8.gg	-te et
16bn	l'e/-
=67	=67
[2dd	-lan-
8dd]	|
8f#	|
=68	=68
2g}	-ce!}
4r	.
!!rests
=73	=73
{4f	{Je
8g	ne
8a	suis
8b-	qu'au
8dd	prin-
=74	=74
2.cc	-temps,
=75	=75
4f	je
8g	veux
8a	voir
8b-	la
8dd	mois-
=76	=76
2.cc}	-son;}
=77	=77
{4cc	{Et
8cc	com-
8cc	-me
8cc	le
8cc	so-
=78	=78
2.ee-	-leil,
=79	=79
4cc	de
8cc	sai-
8cc	-son
8cc	en
8cc	sai-
=80	=80
2ee-}	-son,}
{4cc	{Je
=81	=81
2dd	veux
8b-	a-
8b-	-che-
=82	=82
2dd	-ver
(16ccq	|
16ddq	|
8cc)	mon
8b-	an-
=83	=83
[2dd	-ne/-
8dd]	|
8cc	|
=84	=84
2b-}	-e.}
4r	.
!!mm. 85-95 identical melodically to mm. 73-84
=96	=96
*M4/4	*
4r	.
8r	.
8r	.
{(2dd-	{O^
=97	=97
[2e)	mort!
8e]	|
8e	tu
8.f	peux
16g	at-
=98	=98
(4g	-ten-
8f)	-dre;
8r	.
(2ee-	O^
=99	=99
[2f#)	mort!
8f#]	|
8f#	tu
8.g	peux
16a	at-
=100	=100
(4a	-ten-
8g)	-dre;
8g	e/-
[4cc	loigne
8cc]	|
8ee-	e/-
=101	=101
8dd	-loi-
8a	-gne
8b-}	toi}
8r	.
{4g	{Va
8g	con-
8a-	-so-
=102	=102
8g	-ler
8f	les
8d	coeurs
16g	que
16g	la
4a-	hon-
8a-	-te,
16r	.
16cc	l'ef-
=103	=103
[2ee-	-froi,
8ee-]}	|}
8r	.
8r	.
{8c	{Le
=104	=104
8d	pa^-
8e-	-le
8d	de/-
8c	-ses-
4.an	-poir,
8c	de/-
=105	=105
(2c	-vo-
[2B-)	-re.
=106	=106
8B-]}	|}
8r	.
4r	.
2r	.
!!remaining - mm 107-145, is recap of mm. 22-40, 
!!with a minor variation at measure 136
*-	*-
